src/assets/duotone/SearchFavorite.svg

<svg width="24" height="24" viewBox="0 0 24 24"  xmlns="http://www.w3.org/2000/svg">
<path opacity="0.4" d="M11.0002 20.0102C15.9763 20.0102 20.0102 15.9763 20.0102 11.0002C20.0102 6.02415 15.9763 1.99023 11.0002 1.99023C6.02415 1.99023 1.99023 6.02415 1.99023 11.0002C1.99023 15.9763 6.02415 20.0102 11.0002 20.0102Z" />
<path d="M12.7699 8.28936C12.1399 8.08936 11.4699 8.20936 10.9899 8.57936C10.4999 8.20936 9.84993 8.08936 9.21993 8.28936C7.85993 8.72936 7.42993 10.2794 7.80993 11.4594C8.38993 13.2694 10.2999 14.2094 10.9899 14.2094C11.6599 14.2094 13.6099 13.2494 14.1699 11.4594C14.5599 10.2794 14.1299 8.72936 12.7699 8.28936Z" />
<path d="M21.9901 18.95C21.6601 18.34 20.9601 18 20.0201 18C19.3101 18 18.7001 18.29 18.3401 18.79C17.9801 19.29 17.9001 19.96 18.1201 20.63C18.5501 21.93 19.3001 22.22 19.7101 22.27C19.7701 22.28 19.8301 22.28 19.9001 22.28C20.3401 22.28 21.0201 22.09 21.6801 21.1C22.2101 20.33 22.3101 19.56 21.9901 18.95Z" />
</svg>

<?xml version="1.0" encoding="UTF-8"?>
<svg width="24" height="24" viewBox="0 0 24 24" xmlns="http://www.w3.org/2000/svg">
 <path d="m11 20.01c4.9761 0 9.01-4.0339 9.01-9.01 0-4.976-4.0339-9.01-9.01-9.01-4.976 0-9.01 4.0339-9.01 9.01 0 4.9761 4.0339 9.01 9.01 9.01z" opacity=".4"/>
 <path d="m12.77 8.2894c-0.63-0.2-1.3-0.08-1.78 0.29-0.49-0.37-1.14-0.49-1.77-0.29-1.36 0.44-1.79 1.99-1.41 3.17 0.58 1.81 2.49 2.75 3.18 2.75 0.67 0 2.62-0.96 3.18-2.75 0.39-1.18-0.04-2.73-1.4-3.17z"/>
 <path d="m21.99 18.95c-0.33-0.61-1.03-0.95-1.97-0.95-0.71 0-1.32 0.29-1.68 0.79s-0.44 1.17-0.22 1.84c0.43 1.3 1.18 1.59 1.59 1.64 0.06 0.01 0.12 0.01 0.19 0.01 0.44 0 1.12-0.19 1.78-1.18 0.53-0.77 0.63-1.54 0.31-2.15z"/>
</svg>
